symbolic/status/audio-volume-low-symbolic.svg

<svg width="16" height="16" version="1.1" xmlns="http://www.w3.org/2000/svg">
 <path d="M10 1v1.5c2.32.74 4 2.93 4 5.5s-1.68 4.76-4 5.5V15c3.15-.78 5.5-3.6 5.5-7S13.15 1.78 10 1zm0 4v6a3.418 3.418 0 0 0 1.789-3c0-1.3-.719-2.42-1.789-3z" fill="#f8f8f2" opacity=".3"/>
 <path d="m8 1-4 4h-3v6h3l4 4v-11.172zm-2 4.8281v4.3418l-1-0.99805-0.16992-0.17188h-1.8301v-2h1.8301l0.16992-0.17188z" fill="#f8f8f2" style="paint-order:fill markers stroke"/>
</svg>

<svg xmlns="http://www.w3.org/2000/svg" width="16" height="16" version="1.1">
 <path style="fill:#dfdfdf" d="M 8,1 4,5 H 1 V 11 H 4 L 8,15 Z"/>
 <path style="opacity:0.3;fill:#dfdfdf" d="M 10 1 L 10 2.5 C 12.32 3.24 14 5.43 14 8 C 14 10.57 12.32 12.76 10 13.5 L 10 15 C 13.15 14.22 15.5 11.4 15.5 8 C 15.5 4.6 13.15 1.78 10 1 z M 10 5 L 10 11 C 11.06 10.42 11.789 9.3 11.789 8 C 11.789 6.7 11.07 5.58 10 5 z"/>
</svg>
